X: 0505
T: The Bottom of the Punch Bowl
P: The Bottom of the Punch Bowl
C:McGibbon 1763
R:Reel (8x32)
B:RSCDS 5-5
Z:Anselm Lingnau <anselm@strathspey.org>
M:C|
L:1/8
K:D
|:F/E/|"D"D2D2 d3e|d2D2 FGAF|"Em"E2E2 efgf|"A"e2E2 FGAF|
       "D"D2D2 d3e|"Bm"fedB d3A|"G"[G3D3]F "A"[A3C3]E|"D"F2D2D2:|
|:de|"D"fedB ABde|fedB "G"d3e|"D"A3B ABde|"A"f2e2e2 de|
     "D"fedB ABde|fedB "Bm"d3A|"G"[BD]dBF "A"[AC]BAE|"D"F2 "G"D2 "D"D2:|
%%center Book05/0505-Bottom_of_the_Punch_Bowl-AL.abc

%%sep 1 1 500
%%sep 1 1 500

